dist/flags/s/334.svg

<svg width="16" height="12" viewBox="0 0 16 12" fill="none" xmlns="http://www.w3.org/2000/svg">
<mask id="mask0" mask-type="alpha" maskUnits="userSpaceOnUse" x="0" y="0" width="16" height="12">
<rect width="16" height="12" fill="white"/>
</mask>
<g mask="url(#mask0)">
<path fill-rule="evenodd" clip-rule="evenodd" d="M0 0H16V12H0V0Z" fill="#2E42A5"/>
<mask id="mask1" mask-type="alpha" maskUnits="userSpaceOnUse" x="0" y="0" width="9" height="7">
<rect width="9" height="7" fill="white"/>
</mask>
<g mask="url(#mask1)">
<path d="M-1.00214 6.49993L0.978339 7.36853L9.04494 0.944391L10.0896 -0.346375L7.97176 -0.636686L4.68159 2.13166L2.03334 3.99688L-1.00214 6.49993Z" fill="#F7FCFF"/>
<path d="M-0.731018 7.10849L0.277943 7.61255L9.71445 -0.466309H8.29775L-0.731018 7.10849Z" fill="#F50100"/>
<path d="M10.0021 6.49993L8.02166 7.36853L-0.0449371 0.944391L-1.08959 -0.346375L1.02824 -0.636686L4.31841 2.13166L6.96666 3.99688L10.0021 6.49993Z" fill="#F7FCFF"/>
<path d="M9.93457 6.93661L8.92561 7.44067L4.90745 3.9817L3.71615 3.59523L-1.1901 -0.342034H0.226597L5.13009 3.50178L6.43256 3.96519L9.93457 6.93661Z" fill="#F50100"/>
<mask id="path-9-outside-1" maskUnits="userSpaceOnUse" x="-1" y="-1" width="11" height="9" fill="black">
<rect fill="white" x="-1" y="-1" width="11" height="9"/>
<path fill-rule="evenodd" clip-rule="evenodd" d="M4.99226 0H3.99226V3H0V4H3.99226V7H4.99226V4H9V3H4.99226V0Z"/>
</mask>
<path fill-rule="evenodd" clip-rule="evenodd" d="M4.99226 0H3.99226V3H0V4H3.99226V7H4.99226V4H9V3H4.99226V0Z" fill="#F50100"/>
<path d="M3.99226 0V-0.75H3.24226V0H3.99226ZM4.99226 0H5.74226V-0.75H4.99226V0ZM3.99226 3V3.75H4.74226V3H3.99226ZM0 3V2.25H-0.75V3H0ZM0 4H-0.75V4.75H0V4ZM3.99226 4H4.74226V3.25H3.99226V4ZM3.99226 7H3.24226V7.75H3.99226V7ZM4.99226 7V7.75H5.74226V7H4.99226ZM4.99226 4V3.25H4.24226V4H4.99226ZM9 4V4.75H9.75V4H9ZM9 3H9.75V2.25H9V3ZM4.99226 3H4.24226V3.75H4.99226V3ZM3.99226 0.75H4.99226V-0.75H3.99226V0.75ZM4.74226 3V0H3.24226V3H4.74226ZM0 3.75H3.99226V2.25H0V3.75ZM0.75 4V3H-0.75V4H0.75ZM3.99226 3.25H0V4.75H3.99226V3.25ZM4.74226 7V4H3.24226V7H4.74226ZM4.99226 6.25H3.99226V7.75H4.99226V6.25ZM4.24226 4V7H5.74226V4H4.24226ZM9 3.25H4.99226V4.75H9V3.25ZM8.25 3V4H9.75V3H8.25ZM4.99226 3.75H9V2.25H4.99226V3.75ZM4.24226 0V3H5.74226V0H4.24226Z" fill="#F7FCFF" mask="url(#path-9-outside-1)"/>
</g>
<path d="M4.40801 9.83429L3.81758 10.3799L3.87605 9.57811L3.08133 9.4567L3.74467 9.00249L3.34409 8.30545L4.1128 8.54087L4.40801 7.79309L4.70323 8.54087L5.47193 8.30545L5.07135 9.00249L5.73469 9.4567L4.93997 9.57811L4.99844 10.3799L4.40801 9.83429Z" fill="#F7FCFF"/>
<path d="M10.776 6.06893L10.3824 6.43269L10.4214 5.89814L9.89155 5.8172L10.3338 5.51439L10.0667 5.0497L10.5792 5.20665L10.776 4.70813L10.9728 5.20665L11.4853 5.0497L11.2182 5.51439L11.6605 5.8172L11.1306 5.89814L11.1696 6.43269L10.776 6.06893Z" fill="#F7FCFF"/>
<path d="M11.7147 2.37667L11.321 2.74043L11.36 2.20588L10.8302 2.12494L11.2724 1.82213L11.0054 1.35744L11.5179 1.51439L11.7147 1.01587L11.9115 1.51439L12.4239 1.35744L12.1569 1.82213L12.5991 2.12494L12.0693 2.20588L12.1083 2.74043L11.7147 2.37667Z" fill="#F7FCFF"/>
<path d="M14.0613 4.22286L13.6677 4.58662L13.7067 4.05208L13.1769 3.97113L13.6191 3.66833L13.3521 3.20363L13.8645 3.36058L14.0613 2.86206L14.2582 3.36058L14.7706 3.20363L14.5036 3.66833L14.9458 3.97113L14.416 4.05208L14.455 4.58662L14.0613 4.22286Z" fill="#F7FCFF"/>
<path d="M12.184 9.53048L11.7904 9.89424L11.8294 9.35969L11.2995 9.27875L11.7418 8.97594L11.4747 8.51125L11.9872 8.6682L12.184 8.16968L12.3808 8.6682L12.8933 8.51125L12.6262 8.97594L13.0684 9.27875L12.5386 9.35969L12.5776 9.89424L12.184 9.53048Z" fill="#F7FCFF"/>
<path d="M13.8267 6.64792L13.4267 6.85817L13.5031 6.41285L13.1796 6.09746L13.6267 6.03249L13.8267 5.62732L14.0266 6.03249L14.4738 6.09746L14.1502 6.41285L14.2266 6.85817L13.8267 6.64792Z" fill="#F7FCFF"/>
</g>
</svg>

<svg width="16" height="12" fill="none" xmlns="http://www.w3.org/2000/svg">
  <mask id="a" maskUnits="userSpaceOnUse" x="0" y="0" width="16" height="12">
    <path fill="#fff" d="M0 0h16v12H0z"/>
  </mask>
  <g mask="url(#a)">
    <path fill-rule="evenodd" clip-rule="evenodd" d="M0 0h16v12H0V0z" fill="#2E42A5"/>
    <mask id="b" maskUnits="userSpaceOnUse" x="0" y="0" width="9" height="7">
      <path fill="#fff" d="M0 0h9v7H0z"/>
    </mask>
    <g mask="url(#b)">
      <path d="M-1.002 6.5l1.98.869L9.045.944l1.045-1.29-2.118-.29-3.29 2.768-2.649 1.865L-1.002 6.5z" fill="#F7FCFF"/>
      <path d="M-.731 7.108l1.009.505 9.437-8.08H8.298L-.731 7.109z" fill="#F50100"/>
      <path d="M10.002 6.5l-1.98.869L-.045.944-1.09-.346l2.118-.29 3.29 2.768 2.649 1.865L10.002 6.5z" fill="#F7FCFF"/>
      <path d="M9.935 6.937l-1.01.504-4.018-3.46-1.19-.386L-1.19-.342H.227L5.13 3.502l1.303.463 3.502 2.972z" fill="#F50100"/>
      <mask id="c" maskUnits="userSpaceOnUse" x="-1" y="-1" width="11" height="9" fill="#000">
        <path fill="#fff" d="M-1-1h11v9H-1z"/>
        <path fill-rule="evenodd" clip-rule="evenodd" d="M4.992 0h-1v3H0v1h3.992v3h1V4H9V3H4.992V0z"/>
      </mask>
      <path fill-rule="evenodd" clip-rule="evenodd" d="M4.992 0h-1v3H0v1h3.992v3h1V4H9V3H4.992V0z" fill="#F50100"/>
      <path d="M3.992 0v-.75h-.75V0h.75zm1 0h.75v-.75h-.75V0zm-1 3v.75h.75V3h-.75zM0 3v-.75h-.75V3H0zm0 1h-.75v.75H0V4zm3.992 0h.75v-.75h-.75V4zm0 3h-.75v.75h.75V7zm1 0v.75h.75V7h-.75zm0-3v-.75h-.75V4h.75zM9 4v.75h.75V4H9zm0-1h.75v-.75H9V3zM4.992 3h-.75v.75h.75V3zm-1-2.25h1v-1.5h-1v1.5zM4.742 3V0h-1.5v3h1.5zM0 3.75h3.992v-1.5H0v1.5zM.75 4V3h-1.5v1h1.5zm3.242-.75H0v1.5h3.992v-1.5zM4.742 7V4h-1.5v3h1.5zm.25-.75h-1v1.5h1v-1.5zM4.242 4v3h1.5V4h-1.5zM9 3.25H4.992v1.5H9v-1.5zM8.25 3v1h1.5V3h-1.5zm-3.258.75H9v-1.5H4.992v1.5zM4.242 0v3h1.5V0h-1.5z" fill="#F7FCFF" mask="url(#c)"/>
    </g>
    <path d="M4.408 9.834l-.59.546.058-.802-.795-.121.664-.455-.4-.697.768.236.295-.748.295.748.769-.236-.4.697.663.455-.795.121.058.802-.59-.546zm6.368-3.765l-.394.364.04-.535-.53-.08.442-.304-.267-.464.512.157.197-.499.197.499.512-.157-.267.464.442.303-.53.081.04.535-.394-.364zm.939-3.692l-.394.363.04-.534-.53-.081.442-.303-.268-.465.513.157.197-.498.197.498.512-.157-.267.465.442.303-.53.08.04.535-.394-.363zm2.346 1.846l-.393.364.039-.535-.53-.08.442-.304-.267-.464.513.157.196-.499.197.499.513-.157-.267.464.442.303-.53.081.039.535-.394-.364zM12.184 9.53l-.394.364.04-.534-.53-.081.442-.303-.267-.465.512.157.197-.498.197.498.512-.157-.267.465.443.303-.53.08.039.535-.394-.363zm1.643-2.882l-.4.21.076-.445-.323-.316.447-.065.2-.405.2.405.447.065-.324.316.077.445-.4-.21z" fill="#F7FCFF"/>
  </g>
</svg>
